X:1
T:Title
%%score { 1 | ( 2 3 ) }
L:1/8
M:4/4
K:D
V:1 treble nm="Grand Piano"
V:2 bass 
V:3 bass 
V:1
 z4 z2[Q:1/4=100] D2 | F>F F>E D2 F2 | [FA]4 F2 A2 | F>F F>E D2 F2 | [CE]6 [CG]2 | F>F F>E D2 F2 | %6
 [FA]2 F2 G2 B2 | d>c d>B A2 F2 | [CE]4 D2 z2 | [Fd]>[Ec] [Fd]>[GB] [FA]2 [GB]2 | [FA]4 F2 A2 | %11
 [Fd]>[Ec] [Fd]>[GB] [FA]2 [DF]2 | [DF]4 [CE]2 [CG]2 |[M:3/4] F>F F>E D2 |[M:1/4] F2 | %15
[M:4/4] [FA]2 F2 G2 B2 | d>c d>B A2 F2 |[M:3/4] [CE]4 D2 |] %18
V:2
 z4 z2 [D,F,]2 | [D,A,D]>[D,A,D] [D,A,D]>[D,G,D] [D,F,]2 [D,A,D]2 | [D,D]4 [D,A,D]2 [D,F,D]2 | %3
 [D,A,D]>[D,A,D] [D,A,D]>[D,G,D] [D,F,]2 [D,A,D]2 | [A,,A,]6 [A,,A,]2 | %5
 [D,A,D]>[D,A,D] [D,A,D]>[D,G,D] [D,F,]2 [D,A,D]2 | [D,D]2 [D,A,D]2 [G,B,D]2 [G,D]2 | %7
 [F,A,D]>[F,^A,D] [F,B,D]>[K:treble][G,DG] [A,DF]2[K:bass] [A,D]2 | [A,,G,]4 [D,F,]2 z2 | %9
 [D,A,]>[D,A,] [D,A,]>[D,D] [D,D]2 [D,D]2 | z4 D2 z2 | [D,A,]>[D,A,] [D,A,]>[D,D] [D,D]2 [D,A,]2 | %12
 [A,,A,]4 [A,,A,]2 [A,,A,]2 |[M:3/4] [D,A,D]>[D,A,D] [D,A,D]>[D,G,D] [D,F,]2 |[M:1/4] [D,A,D]2 | %15
[M:4/4] [D,D]2 [D,A,D]2 [G,B,D]2 [G,D]2 | %16
 [F,A,D]>[F,^A,D] [F,B,D]>[K:treble][G,DG] [A,DF]2[K:bass] [A,D]2 |[M:3/4] [A,,G,]4 [D,F,]2 |] %18
V:3
 x8 | x8 | x8 | x8 | x8 | x8 | x8 | x7/2[K:treble] x5/2[K:bass] x2 | x8 | x8 | %10
 [D,D]4 [D,A,]2- [D,A,F]2 | x8 | x8 |[M:3/4] x6 |[M:1/4] x2 |[M:4/4] x8 | %16
 x7/2[K:treble] x5/2[K:bass] x2 |[M:3/4] x6 |] %18

